X:73
T:What Child Is This?
%%stretchlast false
M:3/4
L:1/4
K:C clef=C1
"^ii"[DFd]/ [DAdf] "^I췇"[EGcg]/ "^IV"[Fca]3/4 "^鮫셨ii"[Fc^a]/4 | "^IV"[FAfa]/ "^I"[Cceg] [CGce]/ [CEc]3/4 [CEcd]/4 | [CGce]/ "^ii"[DFAf] [DFAd]/ "^v췇"[^A,DGd]3/4 [^A,DG^c]/4 | "^鮫셌II"[^A,Dd]/ "^VI"[A,A^ce]3/2 "^vi"[A,A] | "^ii"[DFd]/ [DAdf] "^I췇"[EGcg]/ "^IV"[Fca]3/4 "^鮫셨ii"[Fc^a]/4 | "^IV"[FAfa]/ "^I"[Cceg] [CGce]/ [CEc]3/4 [CEcd]/4 | [CGce]/ "^ii"[DFAf]3/4 [DFAe]/4 "^v"[G,G^Ad]/ "^VI"[A,EA^c]3/4 [A,EAB]/4 | "^vi"[A,Ac]/ "^v"[DGAd]3/2 "^ii"[DFAd]3/2 | "^vi"[Acec']3/2 "^IV"[Fcac']3/4 "^V"[Fcgb]/4 | "^IV"[Fcfa]/ "^I"[Cceg] [CGce]/ [CEc]3/4 [CEcd]/4 | [CGce]/ "^ii"[DFAf] [DFAd]/ "^v췇"[^A,DGd]3/4 [^A,DG^c]/4 | "^鮫셌II"[^A,Dd]/ "^VI"[A,A^ce] "^vi"[A,Ac]/ [A,A]3/2 | [Acec']3/2 "^IV"[Fcac']3/4 "^V"[Fcgb]/4 | "^IV"[Fcfa]/ "^I"[Cceg] [CGce]/ [CEc]3/4 [CEcd]/4 | [CGce]/ "^ii"[DFAf]3/4 [DFAe]/4 "^v"[G,G^Ad]/ "^VI"[A,EA^c]3/4 [A,EAB]/4 | "^vi"[A,Ac]/ "^v"[DGAd]3/2 "^ii"[DFAd] |]
